Hatter-kde-dark/actions/22/object-rotate-left.svg

<svg xmlns="http://www.w3.org/2000/svg" viewBox="0 0 22 22">
  <defs id="defs3051">
    <style type="text/css" id="current-color-scheme">
      .ColorScheme-Text {
        color:#dedede;
      }
      .ColorScheme-Highlight {
        color:#3daee9;
      }
      </style>
  </defs>
 <path 
     style="fill:currentColor;fill-opacity:1;stroke:none" 
     d="M 12.400391 3 L 9.1074219 6.2929688 L 8.9003906 6.5 L 9.1074219 6.7070312 L 12.400391 10 L 13.107422 9.2929688 L 10.814453 7 L 13.099609 7 L 14 7 L 14 6 L 13.099609 6 L 10.814453 6 L 13.107422 3.7070312 L 12.400391 3 z M 15.5 6 C 15.223 6 15 6.223 15 6.5 C 15 6.777 15.223 7 15.5 7 C 15.777 7 16 6.777 16 6.5 C 16 6.223 15.777 6 15.5 6 z M 6.9492188 8 L 2 12.949219 L 8.0507812 19 L 13 14.050781 L 6.9492188 8 z M 18.5 8 C 18.223 8 18 8.223 18 8.5 C 18 8.777 18.223 9 18.5 9 C 18.777 9 19 8.777 19 8.5 C 19 8.223 18.777 8 18.5 8 z M 6.9492188 9.4140625 L 11.726562 14.191406 L 8.1914062 17.726562 L 3.4140625 12.949219 L 6.9492188 9.4140625 z M 19.5 11 C 19.223 11 19 11.223 19 11.5 C 19 11.777 19.223 12 19.5 12 C 19.777 12 20 11.777 20 11.5 C 20 11.223 19.777 11 19.5 11 z M 18.5 14 C 18.223 14 18 14.223 18 14.5 C 18 14.777 18.223 15 18.5 15 C 18.777 15 19 14.777 19 14.5 C 19 14.223 18.777 14 18.5 14 z M 15.5 16 C 15.223 16 15 16.223 15 16.5 C 15 16.777 15.223 17 15.5 17 C 15.777 17 16 16.777 16 16.5 C 16 16.223 15.777 16 15.5 16 z "
     class="ColorScheme-Text"
     />
</svg>

<?xml version="1.0" encoding="UTF-8"?>
<svg viewBox="0 0 22 22" xmlns="http://www.w3.org/2000/svg">
 <defs id="defs3051">
  <style id="current-color-scheme" type="text/css">.ColorScheme-Text {
        color:#dedede;
      }
      .ColorScheme-Highlight {
        color:#3daee9;
      }</style>
 </defs>
 <path class="ColorScheme-Text" d="m12.4 3-3.5 3.5 3.5 3.5 0.70703-0.70703-2.293-2.293h2.2852 0.90039v-1h-0.90039-2.2852l2.293-2.293-0.70703-0.70703zm3.0996 3c-0.277 0-0.5 0.223-0.5 0.5s0.223 0.5 0.5 0.5 0.5-0.223 0.5-0.5-0.223-0.5-0.5-0.5zm-8.5508 2-4.9492 4.9492 6.0508 6.0508 4.9492-4.9492-6.0508-6.0508zm11.551 0c-0.277 0-0.5 0.223-0.5 0.5s0.223 0.5 0.5 0.5 0.5-0.223 0.5-0.5-0.223-0.5-0.5-0.5zm-11.551 1.4141 4.7773 4.7773-3.5352 3.5352-4.7773-4.7773 3.5352-3.5352zm12.551 1.5859c-0.277 0-0.5 0.223-0.5 0.5s0.223 0.5 0.5 0.5 0.5-0.223 0.5-0.5-0.223-0.5-0.5-0.5zm-1 3c-0.277 0-0.5 0.223-0.5 0.5s0.223 0.5 0.5 0.5 0.5-0.223 0.5-0.5-0.223-0.5-0.5-0.5zm-3 2c-0.277 0-0.5 0.223-0.5 0.5s0.223 0.5 0.5 0.5 0.5-0.223 0.5-0.5-0.223-0.5-0.5-0.5z" fill="currentColor"/>
</svg>
